pages/features/real-time-communication.svg

<?xml version="1.0" encoding="UTF-8" standalone="no"?>
<svg width="78px" height="88px" viewBox="0 0 78 88" version="1.1" xmlns="http://www.w3.org/2000/svg" xmlns:xlink="http://www.w3.org/1999/xlink">
    <!-- Generator: Sketch 3.8.1 (29687) - http://www.bohemiancoding.com/sketch -->
    <title>Realtime Communication</title>
    <desc>Created with Sketch.</desc>
    <defs></defs>
    <g id="Desktop-design" stroke="none" stroke-width="1" fill="none" fill-rule="evenodd">
        <g id="Features" transform="translate(-463.000000, -6653.000000)">
            <g id="Group-13" transform="translate(0.000000, 6396.000000)">
                <g id="Group-14" transform="translate(462.000000, 257.000000)">
                    <g id="Realtime-Communication" transform="translate(1.000000, 0.000000)">
                        <path d="M35.5238347,0.829552857 C37.4344704,-0.277494758 40.5369227,-0.275540049 42.4458143,0.829552857 L74.5375323,19.4080459 C76.4498004,20.5150935 78,23.2113212 78,25.421507 L78,62.578493 C78,64.7925883 76.4464239,67.4868612 74.5375323,68.5919541 L42.4458143,87.1704471 C40.5335462,88.2774948 37.4310968,88.27554 35.5238347,87.1704471 L3.45951196,68.5919541 C1.54887626,67.4849065 2.12051611e-14,64.7886788 1.99889639e-14,62.578493 L-4.57382396e-16,25.421507 C-1.67573088e-15,23.2074117 1.55224986,20.5131388 3.45951196,19.4080459 L35.5238347,0.829552857 Z" id="Polygon-16" fill="#49B9E8"></path>
                        <path d="M46.9217477,45 L46.9217477,53 C46.9217477,54.1045695 46.0607994,55 44.9987657,55 C44.6718588,55 44.3641817,55 43.1911627,54 C41.9989138,53 39.9797828,51 37.9029622,50 C35.9799803,49.08 33.9993088,49 32.0378672,49 L34.3646754,55.64 L34.4223648,56 C34.4223648,56.5522847 33.9918907,57 33.4608739,57 L29.6149099,57 C29.1918539,57 28.8264873,56.72 28.7111084,56.32 L26.1343125,49 L25.7689459,49 C24.7069123,49 23.845964,48.1045695 23.845964,47 C21.7218967,47 20,45.209139 20,43 C20,40.790861 21.7218967,39 23.845964,39 C23.845964,37.8954305 24.7069123,37 25.7689459,37 L31.5378919,37 C33.6724019,37 35.8069119,37 37.9029622,36 C39.9797828,35 41.9989138,33 43.1911627,32 C44.3641817,31 44.6718588,31 44.9987657,31 C46.0607994,31 46.9217477,31.8954305 46.9217477,33 L46.9217477,41 C47.9837813,41 48.8447297,41.8954305 48.8447297,43 C48.8447297,44.1045695 47.9837813,45 46.9217477,45 Z M58,43 C58,45.76 56.9231301,48.26 55.1924463,50.08 L52.4618119,47.24 C53.5002222,46.16 54.154036,44.66 54.154036,43 C54.154036,41.34 53.5002222,39.84 52.4618119,38.76 L55.1924463,35.92 C56.9231301,37.74 58,40.24 58,43 Z" id="Combined-Shape" fill="#FFFFFF"></path>
                    </g>
                </g>
            </g>
        </g>
    </g>
</svg>

<svg width="78" height="88" viewBox="0 0 78 88" xmlns="http://www.w3.org/2000/svg"><g fill="none"><path d="M35.524.83c1.911-1.107 5.013-1.105 6.922 0l32.092 18.578c1.912 1.107 3.462 3.803 3.462 6.013v37.157c0 2.214-1.554 4.908-3.462 6.013l-32.092 18.578c-1.912 1.107-5.015 1.105-6.922 0l-32.064-18.578c-1.911-1.107-3.46-3.803-3.46-6.013v-37.157c0-2.214 1.552-4.908 3.46-6.013l32.064-18.578z" fill="#49B9E8"/><path d="M46.922 45v8c0 1.105-.861 2-1.923 2-.327 0-.635 0-1.808-1-1.192-1-3.211-3-5.288-4-1.923-.92-3.904-1-5.865-1l2.327 6.64.058.36c0 .552-.43 1-.961 1h-3.846c-.423 0-.788-.28-.904-.68l-2.577-7.32h-.365c-1.062 0-1.923-.895-1.923-2-2.124 0-3.846-1.791-3.846-4s1.722-4 3.846-4c0-1.105.861-2 1.923-2h5.769c2.135 0 4.269 0 6.365-1 2.077-1 4.096-3 5.288-4 1.173-1 1.481-1 1.808-1 1.062 0 1.923.895 1.923 2v8c1.062 0 1.923.895 1.923 2s-.861 2-1.923 2zm11.078-2c0 2.76-1.077 5.26-2.808 7.08l-2.731-2.84c1.038-1.08 1.692-2.58 1.692-4.24 0-1.66-.654-3.16-1.692-4.24l2.731-2.84c1.731 1.82 2.808 4.32 2.808 7.08z" fill="#fff"/></g></svg>
